build/img/sprites/starWhite.svg

<svg width="54" height="54" viewBox="0 0 54 54" fill="none" xmlns="http://www.w3.org/2000/svg">
<path d="M49.4209 24.2262L39.9287 32.4169L42.8207 44.6661C42.9802 45.331 42.9391 46.0283 42.7026 46.6699C42.466 47.3115 42.0446 47.8686 41.4916 48.2709C40.9386 48.6731 40.2788 48.9024 39.5955 48.9298C38.9122 48.9573 38.2362 48.7816 37.6527 48.425L27.0004 41.869L16.3417 48.425C15.7583 48.7795 15.083 48.9535 14.4009 48.9251C13.7188 48.8967 13.0604 48.6671 12.5085 48.2652C11.9567 47.8633 11.5361 47.3071 11.2997 46.6666C11.0633 46.0262 11.0216 45.3301 11.18 44.6661L14.0825 32.4169L4.59036 24.2262C4.07419 23.7801 3.70089 23.1918 3.51707 22.5348C3.33325 21.8778 3.34707 21.1812 3.55679 20.532C3.76652 19.8828 4.16286 19.3098 4.69631 18.8845C5.22976 18.4592 5.87669 18.2005 6.55629 18.1407L19.0016 17.1366L23.8025 5.51816C24.0624 4.88497 24.5047 4.34334 25.0732 3.96216C25.6416 3.58097 26.3106 3.37744 26.9951 3.37744C27.6795 3.37744 28.3485 3.58097 28.917 3.96216C29.4855 4.34334 29.9278 4.88497 30.1876 5.51816L34.9865 17.1366L47.4318 18.1407C48.1127 18.1983 48.7615 18.4555 49.2969 18.8802C49.8323 19.3049 50.2305 19.8782 50.4415 20.5282C50.6525 21.1782 50.6671 21.876 50.4833 22.5342C50.2995 23.1924 49.9255 23.7817 49.4082 24.2283L49.4209 24.2262Z" fill="white"/>
</svg>

<svg width="54" height="54" viewBox="0 0 54 54" fill="none" xmlns="http://www.w3.org/2000/svg"><path d="M49.42 24.226l-9.491 8.19 2.892 12.25a3.46 3.46 0 01-5.168 3.759L27 41.869l-10.658 6.556a3.46 3.46 0 01-5.162-3.759l2.902-12.25-9.492-8.19a3.472 3.472 0 011.966-6.085l12.446-1.004 4.8-11.619a3.451 3.451 0 016.386 0l4.799 11.619 12.445 1.004a3.472 3.472 0 011.976 6.087l.013-.002z" fill="#fff"/></svg>
